X:264
%%etbk:tnset id:80,pos:1,rep:3x,ant:
%%etbk:wsite http://www.thesession.org/tunes/display/2788
%%etbk:pldat 2015-12-31T13:21,2015-12-29T17:35,2015-02-04T17:07,2015-01-18T11:43,2014-12-17T18:18,2014-05-19T18:33,2014-05-11T12:48,2014-04-30T17:07,2014-03-19T19:32,2014-02-14T16:17,2014-02-05T15:16,2013-08-28T17:14,2013-05-21T16:54
T: Bill Harte's
Z: Piano Box Version by Martin Fleischmann
H: Created 2013-02-19 /  Last Modified 2013-02-19
M: 6/8
L: 1/8
R: jig
K: Dmix
|: "D"!1!D !3!(3D!2!D!1!D !4!A2A | !5!BAG !4!AAA | !1!D !3!(3D!2!D!1!D !4!A2A | !5!BA!3!G !2!EE!1!D |
!1!D !3!(3D!2!D!1!D !4!A2!4!A | !3!BAG !2!ABc | !5!d2B !4!cBA | !3!BA!1!G !2!EE!1!D:|
|: "D"!5!d2B !4!cBA | !3!BAG !2!ABc | !5!d2B !4!cBA | !3!BA!1!G !2!E2!1!D |
!5!dcB !4!cBA | !3!BAG ABc | !5!dDd !4!c2A | !3!BA!1!G !2!EE!1!D:|


